X:1
T:Safe in the Glory Land
T:John Robson Sweney
T:Safe in the Glory Land
T:Public Domain
T:Public Domain
C:John Robson Sweney
Z:Public Domain
%%score 1 ( 2 3 )
L:1/8
M:4/4
K:Ab
V:1 treble 
V:2 bass 
V:3 bass 
V:1
 [Ec]>[DB] | [CA]2 [DF]2 [CE]2 [A,C]>[CE] | [CA]2 [DA]2 [CA]2 [CA]>[CA] | [EB]2 [EB]2 [EA]2 [EB]2 | %4
w: 1.~In the|good old way where the|saints have gone, And the|King leads on be-|
w: 2.~In the|good old way like the|ran- somed throng, Un- to|Zi- on now re-|
w: 3.~In the|good old way with a|stead- fast faith, In the|bonds of love and|
w: 4.~Tho’ our|feet must stand on the|cold, cold brink Of the|Jor- dan’s storm- y|
 [Ec]2 [Ee]4 [Ec]>[DB] | [CA]2 [DF]2 [CE]2 [A,C]>[CE] | [CA]2 [DA]2 [CA]2 [CA]>[CA] | %7
w: fore us, We are|tra- veling home to the|heav’n- ly hills, With the|
w: turn- ing, We are|tra- veling home at the|King’s com- mand, And our|
w: un- ion, What a|joy is ours, for the|King we see, And with|
w: riv- er, With the|King we’ll cross to the|oth- er side, And we’ll|
 [EB]2 [Ed]2 [Ec]2 [EB]2 | [EB]4 [EA]3 z ||"^Refrain" [Ac]2 [Ae]2 [Ae]2 [EA]>[EB] | %10
w: day- star shin- ing|o’er us.||
w: lamps are trimmed and|burn- ing.|Tra- veling home to the|
w: Him we hold com-|mun- ion.||
w: sing His praise for-|ev- er.||
 [Ec]2 [Ee]2 [EA]4 | [GB]2 [GB]>[Ac] [Gd]2 [Gd]>[Gd] | [Af]2 [Ae]2 [Ac]4 | %13
w: |||
w: man- sions fair,|Crowns of re- joic- ing and|life to wear;|
w: |||
w: |||
 [Ae]2 [Ec]>[Ed] [Ee]2 [EA]>[EB] | [Ec]2 [EA]2 [DF]4 | [CE]2 [Ec]>[Ed] [Ec]2 [EB]2 | [EA]6 |] %17
w: ||||
w: O what a shout when we|all get there|Safe in the glo- ry|land.|
w: ||||
w: ||||
V:2
 [A,,A,]>[A,,E,] | [A,,E,]2 [A,,A,]2 [A,,A,]2 [A,,E,]>[A,,E,] | %2
 [A,,E,]2 [A,,F,]2 [A,,E,]2 [A,,A,]>[A,,A,] | [E,G,]2 [E,G,]2 [E,F,]2 [E,G,]2 | %4
 A,2 [A,C]4 [A,,A,]>[A,,E,] | [A,,E,]2 [A,,A,]2 [A,,A,]2 [A,,E,]>[A,,E,] | %6
 [A,,E,]2 [A,,F,]2 [A,,E,]2 [A,,A,]>[A,,A,] | [E,G,]2 [E,B,]2 [E,A,]2 [E,D]2 | [A,,D]4 [A,,C]3 z || %9
 [A,E]2 [A,C]2 [A,C]2 [A,C]>[A,D] | [A,E]2 [A,C]2 [A,C]4 | %11
 [E,E]2 [E,E]>[E,E] [E,B,]2 [E,B,]>[E,B,] | [A,D]2 [A,C]2 [A,E]4 | %13
 [A,C]2 A,>[A,B,] [A,C]2 [A,C]>[A,D] | [A,E]2 [C,A,]2 [D,A,]4 | %15
 [E,A,]2 [E,A,]>[E,B,] [E,A,]2 [E,D]2 | [A,,C]6 |] %17
V:3
 x2 | x8 | x8 | x8 | A,2 x6 | x8 | x8 | x8 | x8 || x8 | x8 | x8 | x8 | x2 A,3/2 x9/2 | x8 | x8 | %16
 x6 |] %17

